images/footer-bg-m.svg

<svg fill="none" height="109" viewBox="0 0 359 109" width="359" xmlns="http://www.w3.org/2000/svg"><path d="m.694907 94v-89.22312h26.753593v34.37832h26.486v-34.37832h26.7536v89.22312h-26.7536v-33.4419h-26.486v33.4419zm128.623093 2.0065c-7.045 0-13.288-1.4268-18.728-4.2806-5.44-2.8537-9.675-6.8667-12.7076-12.0391-3.032-5.2615-4.5481-11.3702-4.5481-18.3261 0-11.95 3.0321-21.2691 9.0967-27.9575 6.153-6.7776 15.026-10.1664 26.619-10.1664 7.581 0 13.734 1.6052 18.46 4.8157 4.727 3.2104 8.205 8.0706 10.434 14.5807 2.319 6.4208 3.434 14.4469 3.344 24.0782h-50.698l-3.21-14.3132h33.041l-2.542 8.2936c-.089-7.4018-.892-12.485-2.408-15.2495-1.427-2.8537-3.968-4.2806-7.625-4.2806-1.694 0-3.344.5797-4.949 1.739-1.605 1.0701-2.898 2.8537-3.879 5.3507-.981 2.4078-1.472 5.6628-1.472 9.7651 0 5.7966 1.383 10.2555 4.147 13.3767 2.765 3.1213 7.491 4.6819 14.179 4.6819 2.23 0 4.504-.3121 6.823-.9364 2.318-.6242 4.503-1.293 6.554-2.0065 2.051-.8026 3.746-1.3822 5.083-1.739v20.199c-3.121 1.1593-6.688 2.1849-10.701 3.0766-4.013.8918-8.784 1.3377-14.313 1.3377zm68.136-2.0065h-24.078v-93.637461h24.078zm40.104 0h-24.078v-93.637461h24.078zm47.863 2.0065c-11.861 0-20.823-3.0321-26.888-9.0962-5.975-6.0641-8.962-15.2049-8.962-27.4224 0-13.2876 2.987-22.6513 8.962-28.0912 6.065-5.4399 15.027-8.1599 26.888-8.1599 7.758 0 14.313 1.2039 19.664 3.6118 5.439 2.3186 9.542 6.1533 12.306 11.504 2.854 5.2615 4.281 12.3066 4.281 21.1353 0 12.2175-3.121 21.3583-9.364 27.4224-6.242 6.0641-15.205 9.0962-26.887 9.0962zm0-18.995c2.408 0 4.503-.5797 6.287-1.739 1.873-1.2485 3.299-3.1658 4.28-5.752 1.07-2.5862 1.606-5.9304 1.606-10.0326 0-4.9048-.536-8.6057-1.606-11.1027-.981-2.497-2.407-4.1914-4.28-5.0832-1.784-.8918-3.879-1.3377-6.287-1.3377-2.497 0-4.638.4459-6.421 1.3377-1.784.8918-3.121 2.5862-4.013 5.0832s-1.338 6.1979-1.338 11.1027c0 6.3317.981 10.8352 2.943 13.5106 2.051 2.6753 4.994 4.013 8.829 4.013zm50.113 31.9705 9.899-26.2185h18.594l-12.842 26.2185z" fill="#fff" opacity=".02"/></svg>

<svg width="359" height="109" viewBox="0 0 359 109" fill="none" xmlns="http://www.w3.org/2000/svg">
<path opacity="0.02" d="M0.694907 94V4.77688H27.4485V39.1552H53.9345V4.77688H80.6881V94H53.9345V60.5581H27.4485V94H0.694907ZM129.318 96.0065C122.273 96.0065 116.03 94.5797 110.59 91.7259C105.15 88.8722 100.915 84.8592 97.8824 79.6868C94.8504 74.4253 93.3343 68.3166 93.3343 61.3607C93.3343 49.4107 96.3664 40.0916 102.431 33.4032C108.584 26.6256 117.457 23.2368 129.05 23.2368C136.631 23.2368 142.784 24.842 147.51 28.0525C152.237 31.2629 155.715 36.1231 157.944 42.6332C160.263 49.054 161.378 57.0801 161.288 66.7114H110.59L107.38 52.3982H140.421L137.879 60.6918C137.79 53.29 136.987 48.2068 135.471 45.4423C134.044 42.5886 131.503 41.1617 127.846 41.1617C126.152 41.1617 124.502 41.7414 122.897 42.9007C121.292 43.9708 119.999 45.7544 119.018 48.2514C118.037 50.6592 117.546 53.9142 117.546 58.0165C117.546 63.8131 118.929 68.272 121.693 71.3932C124.458 74.5145 129.184 76.0751 135.872 76.0751C138.102 76.0751 140.376 75.763 142.695 75.1387C145.013 74.5145 147.198 73.8457 149.249 73.1322C151.3 72.3296 152.995 71.75 154.332 71.3932V91.5922C151.211 92.7515 147.644 93.7771 143.631 94.6688C139.618 95.5606 134.847 96.0065 129.318 96.0065ZM197.454 94H173.376V0.362539H197.454V94ZM237.558 94H213.48V0.362539H237.558V94ZM285.421 96.0065C273.56 96.0065 264.598 92.9744 258.533 86.9103C252.558 80.8462 249.571 71.7054 249.571 59.4879C249.571 46.2003 252.558 36.8366 258.533 31.3967C264.598 25.9568 273.56 23.2368 285.421 23.2368C293.179 23.2368 299.734 24.4407 305.085 26.8486C310.524 29.1672 314.627 33.0019 317.391 38.3526C320.245 43.6141 321.672 50.6592 321.672 59.4879C321.672 71.7054 318.551 80.8462 312.308 86.9103C306.066 92.9744 297.103 96.0065 285.421 96.0065ZM285.421 77.0115C287.829 77.0115 289.924 76.4318 291.708 75.2725C293.581 74.024 295.007 72.1067 295.988 69.5205C297.058 66.9343 297.594 63.5901 297.594 59.4879C297.594 54.5831 297.058 50.8822 295.988 48.3852C295.007 45.8882 293.581 44.1938 291.708 43.302C289.924 42.4102 287.829 41.9643 285.421 41.9643C282.924 41.9643 280.783 42.4102 279 43.302C277.216 44.1938 275.879 45.8882 274.987 48.3852C274.095 50.8822 273.649 54.5831 273.649 59.4879C273.649 65.8196 274.63 70.3231 276.592 72.9985C278.643 75.6738 281.586 77.0115 285.421 77.0115ZM335.534 108.982L345.433 82.7635H364.027L351.185 108.982H335.534Z" fill="white"/>
</svg>
